icons/1_Primary/SpeedyPage.svg

<svg xmlns="http://www.w3.org/2000/svg" width="1024" height="1024" fill="none">
   <g clip-path="url(#a)">
      <path fill="#728DBE" d="M512 1024c282.77 0 512-229.23 512-512S794.77 0 512 0 0 229.23 0 512s229.23 512 512 512Z"/>
      <path fill="#fff" d="M695.85 507.03c0 97.79-73.77 179.79-171.56 189.73 0 2.33-276.34 39.24-276.34 39.24l30.44-109.54 224.26-33.96v-.57c44.47-2.9 77.29-40.38 74.91-83.76-.57-7.61-1.76-14.6-4.66-22.21h121.76c1.19 6.99 1.19 14.03 1.19 21.07Zm-367.14 9.94c0-97.79 74.39-179.79 171.56-189.73 0-2.9 275.77-39.24 275.77-39.24l-31.01 109.54-224.26 34.53v.57c-43.33 2.33-76.67 39.81-73.77 83.19.57 7.61 1.76 14.6 4.71 21.64H329.9c-.57-7.04-1.19-13.46-1.19-20.5Z"/>
   </g>
   <defs>
      <clipPath id="a">
         <path fill="#fff" d="M0 0h1024v1024H0z"/>
      </clipPath>
   </defs>
</svg>

<svg width="1024" height="1024" viewBox="0 0 1024 1024" fill="none" xmlns="http://www.w3.org/2000/svg">
<g clip-path="url(#clip0_2_3522)">
<path d="M512 1024C794.77 1024 1024 794.77 1024 512C1024 229.23 794.77 0 512 0C229.23 0 0 229.23 0 512C0 794.77 229.23 1024 512 1024Z" fill="#728DBE"/>
<path d="M695.85 507.03C695.85 604.82 622.08 686.82 524.29 696.76C524.29 699.09 247.95 736 247.95 736L278.39 626.46L502.65 592.5V591.93C547.12 589.03 579.94 551.55 577.56 508.17C576.99 500.56 575.8 493.57 572.9 485.96H694.66C695.85 492.95 695.85 499.99 695.85 507.03ZM328.71 516.97C328.71 419.18 403.1 337.18 500.27 327.24C500.27 324.34 776.04 288 776.04 288L745.03 397.54L520.77 432.07V432.64C477.44 434.97 444.1 472.45 447 515.83C447.57 523.44 448.76 530.43 451.71 537.47H329.9C329.33 530.43 328.71 524.01 328.71 516.97Z" fill="white"/>
</g>
<defs>
<clipPath id="clip0_2_3522">
<rect width="1024" height="1024" fill="white"/>
</clipPath>
</defs>
</svg>
